X:1
T:American Woods
M:4/4
L:1/4
K:E
E/2-G/2| G G F E| C B, zE/2-F/2| G E2 D| E2 z| B/2B/2| c2 d e| c- B G G|\
 E- G F E| C2 z| B| c d e- c| B G3/2 z/2 G| E- G F E| C3| E| F A G F|\
 E- C B, E| F- A E D| E3||
